public/assets/register.svg

<svg width="264.148" height="264.148" xmlns="http://www.w3.org/2000/svg">

 <g>
  <title>background</title>
  <rect fill="none" id="canvas_background" height="402" width="582" y="-1" x="-1"/>
 </g>
 <g>
  <title>Layer 1</title>
  <g id="svg_1">
   <g id="svg_2">
    <g id="svg_3">
     <path fill="#ffffff" id="svg_4" d="m52.14,55.775l134.611,0c4.142,0 7.5,-3.358 7.5,-7.5c0,-4.142 -3.358,-7.5 -7.5,-7.5l-134.611,0c-4.142,0 -7.5,3.358 -7.5,7.5c0,4.142 3.358,7.5 7.5,7.5z"/>
     <path fill="#ffffff" id="svg_5" d="m114.996,166.474l-62.856,0c-4.142,0 -7.5,3.358 -7.5,7.5c0,4.142 3.358,7.5 7.5,7.5l62.856,0c4.142,0 7.5,-3.358 7.5,-7.5c0,-4.142 -3.358,-7.5 -7.5,-7.5z"/>
     <path fill="#ffffff" id="svg_6" d="m114.996,208.373l-62.856,0c-4.142,0 -7.5,3.358 -7.5,7.5c0,4.142 3.358,7.5 7.5,7.5l62.856,0c4.142,0 7.5,-3.358 7.5,-7.5c0,-4.142 -3.358,-7.5 -7.5,-7.5z"/>
     <path fill="#ffffff" id="svg_7" d="m221.867,54.974l0,-29.678c0,-13.948 -11.348,-25.296 -25.296,-25.296l-154.251,0c-13.948,0 -25.296,11.348 -25.296,25.296l0,213.556c0,13.948 11.348,25.296 25.296,25.296l154.251,0c13.948,0 25.296,-11.348 25.296,-25.296l0,-86.13l23.775,-65.321c5.912,-16.247 -6.644,-33.195 -23.775,-32.427zm-14.999,183.878l-0.001,0c0,5.677 -4.619,10.296 -10.296,10.296l-154.251,0c-5.677,0 -10.296,-4.619 -10.296,-10.296l0,-213.556c0,-5.677 4.619,-10.296 10.296,-10.296l154.251,0c5.677,0 10.296,4.619 10.296,10.296l0,35.751c-5.955,5.267 -6.657,9.764 -12.929,26.994c-0.92,-3.102 -3.787,-5.367 -7.188,-5.367l-134.61,0c-4.142,0 -7.5,3.358 -7.5,7.5c0,4.142 3.358,7.5 7.5,7.5l134.611,0c1.529,0 2.949,-0.46 4.135,-1.245l-10.244,28.145l-128.502,0c-4.142,0 -7.5,3.358 -7.5,7.5c0,4.142 3.358,7.5 7.5,7.5l123.042,0l-16.301,44.788c-0.511,1.404 -0.591,2.929 -0.229,4.379l7.218,28.946c1.286,5.155 7.393,7.37 11.686,4.253l24.136,-17.535c2.375,-1.726 2.578,-3.332 5.176,-10.472l0,44.919zm24.678,-156.581l-24.227,66.563l0,0.001l-16.3,44.783l-13.286,9.652l-3.973,-15.934l40.528,-111.346c1.725,-4.742 7.007,-7.222 11.77,-5.489c4.769,1.735 7.225,7 5.488,11.77z"/>
    </g>
   </g>
  </g>
  <g id="svg_8"/>
  <g id="svg_9"/>
  <g id="svg_10"/>
  <g id="svg_11"/>
  <g id="svg_12"/>
  <g id="svg_13"/>
  <g id="svg_14"/>
  <g id="svg_15"/>
  <g id="svg_16"/>
  <g id="svg_17"/>
  <g id="svg_18"/>
  <g id="svg_19"/>
  <g id="svg_20"/>
  <g id="svg_21"/>
  <g id="svg_22"/>
 </g>
</svg>

<?xml version="1.0" encoding="iso-8859-1"?>
<!-- Generator: Adobe Illustrator 19.0.0, SVG Export Plug-In . SVG Version: 6.00 Build 0)  -->
<svg version="1.1" id="Layer_1" xmlns="http://www.w3.org/2000/svg" xmlns:xlink="http://www.w3.org/1999/xlink" x="0px" y="0px"
	 viewBox="0 0 264.148 264.148" style="enable-background:new 0 0 264.148 264.148;" xml:space="preserve">
<g>
	<g>
		<g>
			<path d="M52.14,55.775h134.611c4.142,0,7.5-3.358,7.5-7.5c0-4.142-3.358-7.5-7.5-7.5H52.14c-4.142,0-7.5,3.358-7.5,7.5
				C44.64,52.417,47.998,55.775,52.14,55.775z"/>
			<path d="M114.996,166.474H52.14c-4.142,0-7.5,3.358-7.5,7.5c0,4.142,3.358,7.5,7.5,7.5h62.856c4.142,0,7.5-3.358,7.5-7.5
				C122.496,169.832,119.138,166.474,114.996,166.474z"/>
			<path d="M114.996,208.373H52.14c-4.142,0-7.5,3.358-7.5,7.5c0,4.142,3.358,7.5,7.5,7.5h62.856c4.142,0,7.5-3.358,7.5-7.5
				C122.496,211.731,119.138,208.373,114.996,208.373z"/>
			<path d="M221.867,54.974V25.296C221.867,11.348,210.519,0,196.571,0H42.32C28.372,0,17.024,11.348,17.024,25.296v213.556
				c0,13.948,11.348,25.296,25.296,25.296h154.251c13.948,0,25.296-11.348,25.296-25.296v-86.13l23.775-65.321
				C251.554,71.154,238.998,54.206,221.867,54.974z M206.868,238.852h-0.001c0,5.677-4.619,10.296-10.296,10.296H42.32
				c-5.677,0-10.296-4.619-10.296-10.296V25.296C32.024,19.619,36.643,15,42.32,15h154.251c5.677,0,10.296,4.619,10.296,10.296
				v35.751c-5.955,5.267-6.657,9.764-12.929,26.994c-0.92-3.102-3.787-5.367-7.188-5.367H52.14c-4.142,0-7.5,3.358-7.5,7.5
				c0,4.142,3.358,7.5,7.5,7.5h134.611c1.529,0,2.949-0.46,4.135-1.245l-10.244,28.145H52.14c-4.142,0-7.5,3.358-7.5,7.5
				c0,4.142,3.358,7.5,7.5,7.5h123.042l-16.301,44.788c-0.511,1.404-0.591,2.929-0.229,4.379l7.218,28.946
				c1.286,5.155,7.393,7.37,11.686,4.253l24.136-17.535c2.375-1.726,2.578-3.332,5.176-10.472V238.852z M231.546,82.271
				l-24.227,66.563v0.001l-16.3,44.783l-13.286,9.652l-3.973-15.934L214.288,75.99c1.725-4.742,7.007-7.222,11.77-5.489
				C230.827,72.236,233.283,77.501,231.546,82.271z"/>
		</g>
	</g>
</g>
<g>
</g>
<g>
</g>
<g>
</g>
<g>
</g>
<g>
</g>
<g>
</g>
<g>
</g>
<g>
</g>
<g>
</g>
<g>
</g>
<g>
</g>
<g>
</g>
<g>
</g>
<g>
</g>
<g>
</g>
</svg>
